X: 37180
T: Sir Patrick Bellew's March
R: jig
M: 6/8
K: Gmixolydian
d2d B2G|d2d BAG|dBd g2B|A2G ABG|
d2d BAG|ded B2G|dBd g2B|A2G ABG||
GAG g2d|ece d2c|Bcd dBd|e2B ABG|
GAG gdf|ece d2c|Bcd dBd|e2B A2G||

